src/assets/Vector (54).svg

<svg width="79" height="66" viewBox="0 0 79 66" fill="none" xmlns="http://www.w3.org/2000/svg">
<path fill-rule="evenodd" clip-rule="evenodd" d="M18.1552 0.427689C17.7897 0.793004 17.7807 0.859202 17.7807 3.17006C17.7807 4.98077 17.8379 5.6812 18.0237 6.14551C18.2432 6.69417 18.2443 6.82351 18.0341 7.48321C17.8579 8.03675 17.7842 9.23016 17.7301 12.4083C17.6099 19.4794 17.1558 21.2997 13.773 28.2717C13.0606 29.7398 12.2219 31.6274 11.9092 32.4663C10.8645 35.2691 10.3067 38.5389 10.3067 41.8601V43.563L10.7833 43.4677C11.0455 43.4152 11.5844 43.3723 11.9809 43.3723H12.7017L12.8091 41.203C12.9444 38.4707 13.3654 35.9873 14.0303 34.0005C14.3151 33.1493 15.2992 30.8774 16.2173 28.9515C17.1354 27.0255 17.9291 25.3298 17.9813 25.1829C18.0443 25.0055 18.2368 24.916 18.5547 24.916C19.3488 24.916 20.8485 24.4652 21.8941 23.9123C22.4366 23.6254 22.988 23.3906 23.1194 23.3906C23.2507 23.3906 23.8021 23.6254 24.3446 23.9123C25.3898 24.4649 26.89 24.916 27.683 24.916C28.0637 24.916 28.1927 25.0011 28.3195 25.3354C28.407 25.566 29.1529 27.162 29.977 28.8818C30.8013 30.6016 31.7316 32.7062 32.0445 33.5589L32.6133 35.1089L33.2939 34.8173C33.6682 34.6568 34.0585 34.5255 34.1615 34.5255C34.2643 34.5255 34.4781 34.4306 34.6366 34.3148C34.915 34.1112 34.9052 34.0511 34.3431 32.5226C34.0234 31.6527 33.0538 29.4652 32.1886 27.6615C30.3256 23.7778 29.9424 22.8501 29.4485 21.0264C28.7437 18.4237 28.5866 16.9944 28.5092 12.4846C28.4539 9.2474 28.38 8.03691 28.204 7.48321C27.9946 6.82397 27.9957 6.69371 28.215 6.14551C28.4008 5.6812 28.458 4.98077 28.458 3.17006C28.458 0.859202 28.449 0.793004 28.0835 0.427689L27.7092 0.0532227H23.1194H18.5295L18.1552 0.427689ZM20.3262 2.59212C20.0837 2.8348 20.2292 4.82366 20.5588 5.76799C20.8881 6.71186 20.8901 6.75533 20.6351 7.56406C20.4307 8.21247 20.3738 8.96354 20.3738 11.0108V13.6286H23.1194H25.8649V11.0108C25.8649 8.96903 25.8077 8.21171 25.605 7.56848C25.3512 6.76341 25.3533 6.7201 25.6906 5.72482C25.9504 4.95835 26.0242 4.4405 25.9886 3.63773L25.9412 2.57L23.1862 2.52851C21.6711 2.50579 20.384 2.53431 20.3262 2.59212ZM64.5675 12.1167C63.0912 12.4645 61.6535 13.6214 60.895 15.072L60.4135 15.9928L60.3646 19.3104L60.3158 22.628L54.0346 22.6316C50.5799 22.6336 47.4841 22.6977 47.1549 22.7739C46.4725 22.9323 45.9293 23.2984 45.4748 23.9063C45.1926 24.2837 45.1552 24.5836 45.112 26.8196C45.0548 29.7715 45.2049 30.2602 46.3802 30.9489C46.7579 31.1702 47.0715 31.362 47.077 31.3749C47.0825 31.3879 47.1683 32.1879 47.2676 33.1527L47.4482 34.9068L48.5922 35.4962C53.9307 38.2465 57.6615 43.1847 58.737 48.9239C58.9517 50.0703 59.0385 50.2592 59.6389 50.8858C62.0425 53.3942 62.0988 57.4131 59.7667 60.0069C59.1554 60.6869 59.1169 60.7834 59.1169 61.6396C59.1169 62.9645 58.8741 64.0742 58.3662 65.07L57.9188 65.9471H64.8549H71.791L72.1476 65.5905C72.3807 65.3574 72.5376 64.9739 72.6002 64.4846C72.6529 64.0725 73.4167 56.6655 74.2975 48.0246C75.1783 39.3836 75.935 32.0946 75.9788 31.8266C76.0405 31.4497 76.2033 31.2596 76.697 30.9872C77.0715 30.7807 77.4803 30.383 77.686 30.0253C78.019 29.4465 78.0347 29.2869 77.9957 26.8714C77.9586 24.5763 77.9238 24.2858 77.6401 23.9063C77.1856 23.2984 76.6424 22.9323 75.96 22.7739C75.6308 22.6977 72.5303 22.6336 69.0697 22.6316L62.7777 22.628V19.9051C62.7777 18.275 62.8474 16.9742 62.9513 16.6638C63.2115 15.8868 63.7916 15.1876 64.4583 14.8475C65.0175 14.5621 65.3624 14.5438 70.1577 14.5438H75.262L75.7312 14.1489C76.0517 13.8793 76.2005 13.6171 76.2005 13.3224C76.2005 11.9789 76.0619 11.948 70.145 11.966C67.3933 11.9745 64.8836 12.0422 64.5675 12.1167ZM47.5577 27.0133L47.6008 28.8055H61.5574H75.5141L75.5572 27.0133L75.6 25.221H61.5574H47.5149L47.5577 27.0133ZM37.2858 36.1263C34.8654 36.585 32.2454 37.7309 30.3366 39.1658C29.0681 40.1193 27.2051 42.11 26.3598 43.4152C25.0227 45.4796 24.0623 48.1843 23.796 50.6362C23.6993 51.5261 23.6611 51.595 22.9874 52.0979C21.575 53.1524 20.9403 55.209 21.5037 56.9053C21.7873 57.759 22.6239 58.8243 23.2754 59.1612L23.7057 59.3838L23.7557 61.4198C23.8039 63.3791 23.8231 63.484 24.2673 64.2017C24.553 64.6632 25.0137 65.1236 25.4757 65.4093L26.2223 65.8708H40.203H54.1836L54.9302 65.4093C55.3923 65.1236 55.8529 64.6632 56.1386 64.2017C56.5828 63.484 56.602 63.3791 56.6502 61.4198L56.7002 59.3838L57.1305 59.1612C57.782 58.8243 58.6186 57.759 58.9022 56.9053C59.4656 55.209 58.8309 53.1524 57.4185 52.0979C56.7441 51.5946 56.7068 51.5269 56.6117 50.6362C56.3617 48.295 55.4412 45.6564 54.1412 43.5548C53.1821 42.0043 50.5704 39.3926 49.0199 38.4335C47.566 37.534 45.8558 36.8043 44.1648 36.3615C42.4803 35.9204 39.0002 35.8014 37.2858 36.1263ZM10.688 45.9056C8.43052 46.3714 6.1105 47.8955 4.65062 49.8716C4.23146 50.439 3.94073 50.6782 3.5832 50.7497C2.28805 51.0087 1.07923 51.9721 0.360498 53.3182C0.0627556 53.8759 0.0107422 54.2004 0.0107422 55.4986C0.0107422 56.8049 0.0622981 57.1225 0.370108 57.7104C1.05559 59.0195 2.38536 60.0868 3.67914 60.3662C4.01791 60.4395 4.32893 60.7204 4.82313 61.4C5.67365 62.569 7.01547 63.6739 8.4023 64.3469C10.2974 65.2666 10.852 65.3322 16.7511 65.3347C19.6665 65.3359 22.0516 65.3197 22.0515 65.2988C22.0515 65.2779 21.9142 64.8997 21.7464 64.4582C21.5788 64.017 21.4415 63.4912 21.4415 63.2901V62.9244L16.3698 62.8605C11.6846 62.8014 11.2318 62.7721 10.4284 62.4759C9.30132 62.0604 8.34922 61.4974 7.79476 60.9186L7.3515 60.4559H14.1836H21.0155L20.5196 59.8911C20.2469 59.5806 19.8283 58.9088 19.5895 58.3983C18.468 56.0018 18.7138 53.6242 20.3067 51.4604L20.9833 50.5413H14.1723C7.38399 50.5413 7.36218 50.5403 7.63582 50.238C8.03378 49.7982 9.2577 49.0412 10.1875 48.66C10.947 48.3485 11.3012 48.3252 16.3843 48.2534L21.7756 48.1771L22.1404 47.0331C22.341 46.4039 22.506 45.8377 22.5072 45.7747C22.5083 45.7117 20.0896 45.666 17.1325 45.6728C13.0798 45.6821 11.4928 45.7395 10.688 45.9056ZM24.4319 54.2085C24.1413 54.4637 23.8588 54.8752 23.8045 55.1231C23.6717 55.7277 23.9684 56.5684 24.4475 56.9453C24.8335 57.2489 25.0297 57.2528 40.1618 57.2528C55.2835 57.2528 55.4911 57.2486 55.9174 56.9451C56.429 56.5809 56.7397 55.7531 56.6014 55.1231C56.5471 54.8752 56.2646 54.4637 55.974 54.2085L55.4455 53.7445H40.203H24.9604L24.4319 54.2085Z" fill="white"/>
</svg>

<svg xmlns="http://www.w3.org/2000/svg" width="79" height="66" fill="none" viewBox="0 0 79 66"><path fill="#fff" fill-rule="evenodd" d="M18.155.428c-.365.365-.374.431-.374 2.742 0 1.81.057 2.511.243 2.976.22.548.22.678.01 1.337-.176.554-.25 1.747-.304 4.925-.12 7.071-.574 8.892-3.957 15.864-.712 1.468-1.551 3.355-1.864 4.194-1.045 2.803-1.602 6.073-1.602 9.394v1.703l.476-.095a7.6 7.6 0 0 1 1.198-.096h.72l.108-2.169c.135-2.732.556-5.216 1.221-7.203.285-.85 1.27-3.123 2.187-5.049.918-1.925 1.712-3.621 1.764-3.768q.096-.266.574-.267c.794 0 2.294-.45 3.34-1.004.542-.287 1.093-.521 1.224-.521.132 0 .683.234 1.226.521 1.045.553 2.545 1.004 3.338 1.004.38 0 .51.085.637.42.087.23.833 1.826 1.657 3.546s1.755 3.824 2.067 4.677l.57 1.55.68-.292c.374-.16.765-.291.867-.291.103 0 .317-.095.476-.211.278-.204.268-.264-.294-1.792-.32-.87-1.29-3.058-2.154-4.862-1.863-3.883-2.247-4.81-2.74-6.635-.705-2.602-.862-4.032-.94-8.541-.055-3.238-.129-4.448-.305-5.002-.21-.659-.208-.79.011-1.337.186-.465.243-1.165.243-2.976 0-2.31-.009-2.377-.374-2.742l-.375-.375h-9.18zm2.171 2.164c-.242.243-.097 2.232.233 3.176s.331.987.076 1.796c-.204.648-.261 1.4-.261 3.447v2.618h5.491V11.01c0-2.042-.057-2.8-.26-3.443-.254-.805-.252-.848.086-1.843.26-.767.333-1.284.298-2.087L25.94 2.57l-2.755-.041c-1.515-.023-2.802.005-2.86.063m44.241 9.525c-1.476.347-2.913 1.504-3.672 2.955l-.482.92-.048 3.318-.05 3.318-6.28.004c-3.455.002-6.55.066-6.88.142-.683.158-1.226.524-1.68 1.132-.282.378-.32.678-.363 2.914-.057 2.951.093 3.44 1.268 4.129.378.221.691.413.697.426s.091.813.19 1.778l.181 1.754 1.144.59c5.339 2.75 9.07 7.688 10.145 13.427.215 1.146.301 1.335.902 1.962 2.403 2.508 2.46 6.527.128 9.12-.612.68-.65.777-.65 1.634 0 1.325-.243 2.434-.75 3.43l-.448.877H71.79l.357-.356c.233-.234.39-.617.452-1.106.053-.412.817-7.82 1.698-16.46.88-8.641 1.637-15.93 1.68-16.198.063-.377.225-.567.719-.84.374-.206.783-.604.989-.962.333-.578.349-.738.31-3.154-.037-2.295-.072-2.585-.356-2.965-.454-.608-.998-.974-1.68-1.132-.33-.076-3.43-.14-6.89-.142l-6.292-.004v-2.723c0-1.63.07-2.93.173-3.241.26-.777.84-1.476 1.507-1.817.56-.285.904-.303 5.7-.303h5.104l.47-.395c.32-.27.469-.532.469-.827 0-1.343-.14-1.374-6.056-1.356-2.752.009-5.261.076-5.578.15m-17.01 14.896.044 1.792h27.913l.043-1.792.043-1.792H47.515zm-10.271 9.113c-2.42.459-5.04 1.605-6.95 3.04-1.268.953-3.13 2.944-3.976 4.25-1.337 2.064-2.298 4.768-2.564 7.22-.097.89-.135.959-.809 1.462-1.412 1.054-2.047 3.111-1.483 4.807.283.854 1.12 1.92 1.771 2.256l.43.223.05 2.036c.049 1.96.068 2.064.512 2.782.286.461.747.922 1.209 1.207l.746.462h27.961l.747-.462a3.95 3.95 0 0 0 1.209-1.207c.444-.718.463-.823.511-2.782l.05-2.036.43-.223c.652-.337 1.489-1.402 1.772-2.256.564-1.696-.071-3.753-1.483-4.807-.675-.503-.712-.571-.807-1.462-.25-2.341-1.17-4.98-2.47-7.081-.96-1.55-3.572-4.162-5.122-5.121a18.2 18.2 0 0 0-4.855-2.072c-1.685-.442-5.165-.56-6.88-.236m-26.598 9.78c-2.257.465-4.578 1.99-6.037 3.966-.42.567-.71.806-1.068.878-1.295.259-2.504 1.222-3.223 2.568-.297.558-.35.882-.35 2.18 0 1.307.052 1.625.36 2.212.686 1.31 2.015 2.377 3.31 2.656.338.074.649.354 1.143 1.034.85 1.169 2.192 2.274 3.58 2.947 1.894.92 2.449.985 8.348.988 2.915 0 5.3-.015 5.3-.036s-.137-.4-.305-.84c-.167-.442-.304-.968-.304-1.169v-.366l-5.072-.063c-4.685-.06-5.138-.089-5.942-.385-1.127-.416-2.079-.979-2.633-1.557l-.444-.463h13.665l-.496-.565c-.273-.31-.692-.982-.93-1.493-1.122-2.396-.876-4.774.717-6.938l.676-.919h-6.81c-6.789 0-6.81 0-6.537-.303.398-.44 1.622-1.197 2.552-1.578.759-.311 1.113-.335 6.196-.407l5.392-.076.364-1.144c.201-.63.366-1.195.367-1.258s-2.417-.109-5.375-.102c-4.052.01-5.64.066-6.444.233m13.744 8.303c-.29.255-.573.666-.627.914-.133.605.163 1.445.643 1.822.386.304.582.308 15.714.308 15.121 0 15.33-.004 15.755-.308.512-.364.823-1.192.684-1.822-.054-.248-.336-.66-.627-.914l-.528-.465H24.96z" clip-rule="evenodd"/></svg>
